;FLAVOR:Marlin
;TIME:10085
;Filament used: 7.39584m
;Layer height: 0.2
;MINX:19.882
;MINY:18.566
;MINZ:0.2
;MAXX:200.173
;MAXY:201.44
;MAXZ:16
;TARGET_MACHINE.NAME:Creality Ender-3 S1
;Generated with Cura_SteamEngine 5.6.0
M82 ;absolute extrusion mode
; Ender 3 S1 Start G-code
; M413 S0 ; Disable power loss recovery
G92 E0 ; Reset Extruder

; Prep surfaces before auto home for better accuracy
M140 S60
M104 S200

G28 ; Home all axes
G1 Z10.0 F3000 ; Move Z Axis up little to prevent scratching of Heat Bed
G1 X0 Y0

M190 S60
M109 S200

G1 X0.1 Y20 Z0.3 F5000.0 ; Move to start position
G1 X0.1 Y200.0 Z0.3 F1500.0 E15 ; Draw the first line
G1 X0.4 Y200.0 Z0.3 F5000.0 ; Move to side a little
G1 X0.4 Y20 Z0.3 F1500.0 E30 ; Draw the second line
G92 E0 ; Reset Extruder
G1 Z2.0 F3000 ; Move Z Axis up little to prevent scratching of Heat Bed
G1 X5 Y20 Z0.3 F5000.0 ; Move over to prevent blob squish

G92 E0
G92 E0
G1 F2400 E-0.8
;LAYER_COUNT:80
;LAYER:0
M107
M204 S2000
G0 F7500 X72.841 Y30.216 Z0.2
M204 S500
;TYPE:SKIRT
G1 F2400 E0
G1 F1500 X73.238 Y29.277 E0.03391
G1 X73.629 Y28.463 E0.06394
G1 X73.903 Y27.979 E0.08244
G1 X74.357 Y27.228 E0.11163
G1 X74.753 Y26.612 E0.13599
G1 X75.305 Y25.831 E0.1678
G1 X75.606 Y25.461 E0.18366
G1 X76.194 Y24.777 E0.21366
G1 X76.699 Y24.221 E0.23864
G1 X77.354 Y23.562 E0.26955
G1 X77.734 Y23.227 E0.28639
G1 X78.407 Y22.666 E0.31554
G1 X78.999 Y22.199 E0.34061
G1 X79.732 Y21.672 E0.37064
G1 X80.191 Y21.386 E0.38863
G1 X80.932 Y20.953 E0.41717
G1 X81.554 Y20.61 E0.4408
G1 X82.387 Y20.197 E0.47172
G1 X82.875 Y19.993 E0.48931
G1 X83.738 Y19.665 E0.52002
G1 X84.393 Y19.435 E0.54311
G1 X85.308 Y19.16 E0.57489
G1 X85.779 Y19.052 E0.59096
G1 X86.704 Y18.866 E0.62234
G1 X87.377 Y18.749 E0.64506
G1 X88.273 Y18.634 E0.67511
G1 X88.807 Y18.601 E0.6929
G1 X89.714 Y18.571 E0.72309
G1 X90.368 Y18.566 E0.74484
G1 X91.811 Y18.65 E0.79291
G1 X92.714 Y18.768 E0.8232
G1 X93.419 Y18.879 E0.84694
G1 X94.356 Y19.071 E0.87875
G1 X94.84 Y19.205 E0.89546
G1 X95.718 Y19.474 E0.926
G1 X96.375 Y19.694 E0.94904
G1 X97.266 Y20.038 E0.98081
G1 X97.711 Y20.244 E0.99712
G1 X98.517 Y20.646 E1.02708
G1 X99.147 Y20.98 E1.05079
G1 X99.948 Y21.452 E1.08172
G1 X100.364 Y21.735 E1.09845
G1 X101.112 Y22.279 E1.12921
G1 X101.692 Y22.723 E1.15351
G1 X102.142 Y23.089 E1.1728
G1 X102.766 Y23.626 E1.20018
G1 X142.843 Y58.898 E2.97587
G1 X144.931 Y60.684 E3.06726
G1 X148.22 Y63.412 E3.20938
G1 X150.237 Y65.037 E3.29553
G1 X152.485 Y66.74 E3.38933
G1 X154.747 Y68.401 E3.48267
G1 X156.901 Y69.935 E3.57063
G1 X159.203 Y71.475 E3.66275
G1 X161.517 Y72.972 E3.75441
G1 X163.738 Y74.366 E3.84163
G1 X166.153 Y75.784 E3.93477
G1 X170.876 Y78.46 E4.11532
G1 X171.954 Y79.09 E4.15685
G1 X174.995 Y80.907 E4.27467
G1 X175.63 Y81.302 E4.29955
G1 X176.342 Y81.783 E4.32813
G1 X177.151 Y82.381 E4.36159
G1 X179.725 Y84.32 E4.46877
G1 X180.301 Y84.767 E4.49302
G1 X180.908 Y85.276 E4.51937
G1 X181.437 Y85.756 E4.54313
G1 X183.965 Y88.122 E4.65829
G1 X184.718 Y88.85 E4.69312
G1 X185.362 Y89.532 E4.72432
G1 X187.943 Y92.521 E4.85567
G1 X188.428 Y93.097 E4.88072
G1 X188.897 Y93.7 E4.90612
G1 X189.35 Y94.33 E4.93193
G1 X191.295 Y97.135 E5.04546
G1 X191.821 Y97.916 E5.07678
G1 X192.326 Y98.747 E5.10912
G1 X194.106 Y101.995 E5.23231
G1 X194.678 Y103.082 E5.27316
G1 X195.087 Y103.955 E5.30523
G1 X196.831 Y108.153 E5.45642
G1 X197.17 Y109.098 E5.48982
G1 X197.459 Y110.038 E5.52253
G1 X198.355 Y113.07 E5.62768
G1 X198.589 Y113.903 E5.65646
G1 X198.784 Y114.72 E5.6844
G1 X198.932 Y115.484 E5.71028
G1 X199.541 Y118.805 E5.82258
G1 X199.679 Y119.61 E5.84974
G1 X199.791 Y120.482 E5.87898
G1 X199.879 Y121.51 E5.9133
G1 X200.106 Y124.553 E6.01479
G1 X200.154 Y125.316 E6.04022
G1 X200.173 Y126.117 E6.06687
G1 X200.155 Y127.384 E6.10901
G1 X200.057 Y130.543 E6.21413
G1 X200.025 Y131.242 E6.23741
G1 X199.956 Y132.051 E6.26441
G1 X199.849 Y132.913 E6.2933
G1 X199.383 Y136.279 E6.40632
G1 X199.273 Y137.006 E6.43078
G1 X199.109 Y137.845 E6.45921
G1 X198.856 Y138.92 E6.49594
G1 X198.106 Y141.933 E6.59921
G1 X197.912 Y142.67 E6.62456
G1 X197.62 Y143.599 E6.65695
G1 X197.248 Y144.499 E6.68934
G1 X196.798 Y145.36 E6.72165
G1 X196.293 Y146.152 E6.75289
G1 X195.676 Y146.954 E6.78655
G1 X195.04 Y147.642 E6.81771
G1 X194.292 Y148.322 E6.85133
G1 X193.516 Y148.908 E6.88368
G1 X192.752 Y149.389 E6.9137
G1 X191.851 Y149.851 E6.94738
G1 X190.771 Y150.277 E6.986
G1 X189.767 Y150.614 E7.02122
G1 X187.308 Y151.474 E7.10786
G1 X184.928 Y152.382 E7.19259
G1 X182.653 Y153.327 E7.27452
G1 X180.32 Y154.374 E7.35958
G1 X178.041 Y155.474 E7.44374
G1 X175.83 Y156.621 E7.52659
G1 X173.643 Y157.834 E7.60977
G1 X170.448 Y159.748 E7.73364
G1 X169.35 Y160.319 E7.7748
G1 X168.438 Y160.728 E7.80805
G1 X166.029 Y161.849 E7.89642
G1 X163.838 Y162.945 E7.9779
G1 X161.581 Y164.155 E8.06308
G1 X159.369 Y165.423 E8.14788
G1 X157.267 Y166.706 E8.22979
G1 X155.164 Y168.075 E8.31325
G1 X153.06 Y169.532 E8.39837
G1 X151.053 Y171.007 E8.48121
G1 X149.053 Y172.565 E8.56553
G1 X147.142 Y174.143 E8.64796
G1 X146.458 Y174.742 E8.6782
G1 X145.389 Y175.657 E8.725
G1 X144.621 Y176.256 E8.7574
G1 X143.864 Y176.747 E8.78741
G1 X142.94 Y177.236 E8.82218
G1 X142.074 Y177.599 E8.85341
G1 X141.112 Y177.904 E8.88698
G1 X140.162 Y178.115 E8.91934
G1 X139.238 Y178.238 E8.95035
G1 X138.59 Y178.277 E8.97194
G1 X137.951 Y178.292 E8.9932
G1 X127.262 Y178.292 E9.34872
G1 X124.678 Y178.329 E9.43467
G1 X122.113 Y178.438 E9.52006
G1 X119.634 Y178.614 E9.60272
G1 X117.133 Y178.861 E9.68631
G1 X114.625 Y179.182 E9.7704
G1 X112.142 Y179.572 E9.854
G1 X109.699 Y180.026 E9.93665
G1 X107.207 Y180.563 E10.02143
G1 X104.761 Y181.162 E10.10519
G1 X102.339 Y181.827 E10.18873
G1 X99.953 Y182.559 E10.27174
G1 X97.546 Y183.371 E10.35623
G1 X95.175 Y184.245 E10.44027
G1 X92.89 Y185.163 E10.52218
G1 X90.519 Y186.195 E10.60818
G1 X88.233 Y187.266 E10.69215
G1 X86.031 Y188.375 E10.77415
G1 X83.793 Y189.585 E10.85877
G1 X81.625 Y190.835 E10.942
G1 X79.461 Y192.166 E11.0265
G1 X77.369 Y193.536 E11.10968
G1 X75.3 Y194.977 E11.19354
G1 X73.289 Y196.464 E11.27672
G1 X72.345 Y197.203 E11.3166
G1 X71.242 Y198.046 E11.36277
G1 X70.573 Y198.533 E11.39029
G1 X69.795 Y199.043 E11.42123
G1 X69.324 Y199.309 E11.43922
G1 X68.664 Y199.656 E11.46402
G1 X68.165 Y199.901 E11.48251
G1 X67.289 Y200.285 E11.51433
G1 X66.827 Y200.452 E11.53067
G1 X66.067 Y200.701 E11.55727
G1 X65.468 Y200.876 E11.57802
G1 X64.534 Y201.105 E11.61001
G1 X63.886 Y201.215 E11.63187
G1 X62.957 Y201.342 E11.66305
G1 X61.999 Y201.429 E11.69505
G1 X61.341 Y201.44 E11.71694
G1 X60.577 Y201.426 E11.74235
G1 X60.052 Y201.402 E11.75983
G1 X58.721 Y201.259 E11.80435
G1 X57.873 Y201.104 E11.83303
G1 X57.302 Y200.982 E11.85245
G1 X56.378 Y200.741 E11.88421
G1 X55.912 Y200.585 E11.90055
G1 X55.156 Y200.308 E11.92733
G1 X54.64 Y200.102 E11.94581
G1 X53.788 Y199.717 E11.97691
G1 X52.941 Y199.252 E12.00904
G1 X52.235 Y198.83 E12.0364
G1 X51.498 Y198.338 E12.06587
G1 X50.999 Y197.966 E12.08658
G1 X50.043 Y197.215 E12.12701
G1 X41.809 Y190.534 E12.47968
G1 X40.901 Y189.767 E12.51922
G1 X40.058 Y188.97 E12.5578
G1 X39.454 Y188.323 E12.58724
G1 X39.117 Y187.943 E12.60413
G1 X38.324 Y186.93 E12.64692
G1 X37.868 Y186.254 E12.67404
G1 X37.542 Y185.739 E12.69432
G1 X36.927 Y184.62 E12.73678
G1 X36.588 Y183.884 E12.76374
G1 X36.357 Y183.343 E12.7833
G1 X35.887 Y182.011 E12.83028
G1 X35.682 Y181.26 E12.85617
G1 X35.536 Y180.654 E12.87691
G1 X35.318 Y179.443 E12.91783
G1 X35.228 Y178.625 E12.9452
G1 X35.181 Y178.032 E12.96499
G1 X35.159 Y176.681 E13.00993
G1 X35.191 Y176.036 E13.03141
G1 X35.405 Y172.999 E13.13267
G1 X35.508 Y170.504 E13.21572
G1 X35.539 Y167.998 E13.29908
G1 X35.498 Y165.456 E13.38364
G1 X35.388 Y162.949 E13.4671
G1 X35.204 Y160.426 E13.55124
G1 X34.956 Y157.967 E13.63344
G1 X34.629 Y155.453 E13.71776
G1 X34.233 Y152.942 E13.80231
G1 X33.767 Y150.466 E13.88611
G1 X33.245 Y148.055 E13.96816
G1 X32.634 Y145.59 E14.05262
G1 X31.962 Y143.154 E14.13667
G1 X31.211 Y140.721 E14.22136
G1 X30.415 Y138.375 E14.30376
G1 X29.526 Y135.979 E14.38876
G1 X28.587 Y133.655 E14.47212
G1 X27.587 Y131.366 E14.55521
G1 X26.526 Y129.112 E14.63806
G1 X25.367 Y126.82 E14.72349
G1 X24.196 Y124.66 E14.80521
G1 X22.314 Y121.449 E14.929
G1 X21.839 Y120.538 E14.96317
G1 X21.414 Y119.611 E14.99709
G1 X21.183 Y119.073 E15.01656
G1 X20.843 Y118.168 E15.04872
G1 X20.662 Y117.566 E15.06962
G1 X20.473 Y116.853 E15.09416
G1 X20.263 Y115.977 E15.12412
G1 X20.094 Y115.09 E15.15415
G1 X20.019 Y114.448 E15.17565
G1 X19.954 Y113.713 E15.20019
G1 X19.897 Y112.816 E15.23009
G1 X19.882 Y111.913 E15.26012
G1 X19.918 Y111.263 E15.28178
G1 X20.011 Y110.219 E15.31664
G1 X20.083 Y109.597 E15.33746
G1 X20.232 Y108.679 E15.3684
G1 X20.365 Y108.11 E15.38783
G1 X20.637 Y107.094 E15.42281
G1 X20.809 Y106.515 E15.4429
G1 X21.123 Y105.607 E15.47486
G1 X21.359 Y105.057 E15.49476
G1 X21.796 Y104.12 E15.52915
G1 X22.079 Y103.551 E15.55029
G1 X22.516 Y102.761 E15.58032
G1 X22.858 Y102.236 E15.60116
G1 X23.445 Y101.391 E15.63538
G1 X23.811 Y100.892 E15.65596
G1 X24.377 Y100.189 E15.68598
G1 X24.808 Y99.725 E15.70704
G1 X25.322 Y99.202 E15.73143
G1 X25.984 Y98.56 E15.7621
G1 X26.706 Y97.929 E15.79399
G1 X27.156 Y97.588 E15.81277
G1 X28.017 Y96.979 E15.84785
G1 X28.939 Y96.372 E15.88456
G1 X31.423 Y94.858 E15.98132
G1 X33.539 Y93.484 E16.06523
G1 X35.578 Y92.074 E16.14769
G1 X37.608 Y90.581 E16.2315
G1 X39.613 Y89.021 E16.31599
G1 X41.558 Y87.417 E16.39984
G1 X43.424 Y85.786 E16.48227
G1 X45.303 Y84.048 E16.5674
G1 X47.089 Y82.299 E16.65055
G1 X48.826 Y80.501 E16.7337
G1 X50.537 Y78.625 E16.81815
G1 X52.206 Y76.69 E16.90314
G1 X53.771 Y74.767 E16.9856
G1 X55.281 Y72.796 E17.06818
G1 X56.779 Y70.728 E17.15312
G1 X58.213 Y68.624 E17.2378
G1 X59.546 Y66.541 E17.32006
G1 X60.851 Y64.372 E17.40425
G1 X62.084 Y62.186 E17.48772
G1 X63.26 Y59.954 E17.57163
G1 X64.368 Y57.699 E17.6552
G1 X65.423 Y55.389 E17.73966
G1 X66.389 Y53.103 E17.82221
G1 X67.321 Y50.714 E17.9075
G1 X68.157 Y48.378 E17.99002
G1 X68.941 Y45.969 E18.07428
G1 X69.654 Y43.555 E18.158
G1 X70.294 Y41.136 E18.24122
G1 X70.864 Y38.712 E18.32404
G1 X71.382 Y36.18 E18.41
G1 X71.679 Y34.486 E18.4672
G1 X71.802 Y33.84 E18.48908
G1 X72.041 Y32.748 E18.52626
G1 X72.206 Y32.085 E18.54898
G1 X72.632 Y30.748 E18.59565
G1 X72.841 Y30.216 E18.61466
M204 S2000
G0 F7500 X73.209 Y30.372
M204 S500
G1 F1500 X73.599 Y29.45 E18.64796
G1 X73.99 Y28.636 E18.67799
G1 X74.245 Y28.186 E18.6952
G1 X74.694 Y27.444 E18.72404
G1 X75.08 Y26.843 E18.7478
G1 X75.616 Y26.083 E18.77873
G1 X75.909 Y25.722 E18.7942
G1 X76.49 Y25.046 E18.82384
G1 X76.983 Y24.503 E18.84824
G1 X77.638 Y23.844 E18.87914
G1 X77.99 Y23.534 E18.89474
G1 X78.655 Y22.98 E18.92353
G1 X79.233 Y22.524 E18.94801
G1 X79.966 Y21.997 E18.97804
G1 X80.393 Y21.731 E18.99477
G1 X81.125 Y21.303 E19.02298
G1 X81.732 Y20.968 E19.04604
G1 X82.541 Y20.566 E19.07608
G1 X83.017 Y20.367 E19.09324
G1 X83.871 Y20.042 E19.12363
G1 X84.508 Y19.818 E19.14609
G1 X85.398 Y19.55 E19.17701
G1 X85.858 Y19.444 E19.19271
G1 X86.772 Y19.26 E19.22372
G1 X87.428 Y19.146 E19.24586
G1 X88.324 Y19.031 E19.27591
G1 X88.82 Y19.001 E19.29244
G1 X89.717 Y18.971 E19.32229
G1 X90.371 Y18.966 E19.34404
G1 X91.759 Y19.047 E19.39028
G1 X92.652 Y19.163 E19.42023
G1 X93.339 Y19.271 E19.44336
G1 X94.25 Y19.457 E19.47429
G1 X94.723 Y19.587 E19.4906
G1 X95.591 Y19.853 E19.5208
G1 X96.231 Y20.067 E19.54324
G1 X97.098 Y20.401 E19.57415
G1 X97.532 Y20.602 E19.59005
G1 X98.33 Y21 E19.61971
G1 X98.944 Y21.325 E19.64282
G1 X99.723 Y21.783 E19.67288
G1 X100.129 Y22.059 E19.6892
G1 X100.869 Y22.596 E19.71961
G1 X101.44 Y23.034 E19.74355
G1 X101.881 Y23.392 E19.76244
G1 X102.502 Y23.926 E19.78968
G1 X142.583 Y59.202 E21.56556
G1 X144.676 Y60.992 E21.65716
G1 X147.969 Y63.724 E21.79947
G1 X149.995 Y65.356 E21.886
G1 X152.243 Y67.059 E21.9798
G1 X154.515 Y68.727 E22.07355
G1 X156.669 Y70.261 E22.1615
G1 X158.986 Y71.811 E22.25422
G1 X161.304 Y73.311 E22.34605
G1 X163.535 Y74.711 E22.43366
G1 X165.95 Y76.129 E22.5268
G1 X170.674 Y78.805 E22.70738
G1 X171.749 Y79.433 E22.74879
G1 X174.784 Y81.247 E22.86639
G1 X175.406 Y81.633 E22.89074
G1 X176.104 Y82.105 E22.91876
G1 X176.91 Y82.7 E22.95208
G1 X179.48 Y84.636 E23.0591
G1 X180.044 Y85.073 E23.08283
G1 X180.639 Y85.572 E23.10866
G1 X181.164 Y86.048 E23.13223
G1 X183.687 Y88.409 E23.24716
G1 X184.427 Y89.125 E23.28141
G1 X185.059 Y89.794 E23.31202
G1 X187.637 Y92.778 E23.44317
G1 X188.112 Y93.343 E23.46772
G1 X188.572 Y93.934 E23.49263
G1 X189.021 Y94.558 E23.5182
G1 X190.963 Y97.358 E23.63154
G1 X191.479 Y98.124 E23.66226
G1 X191.975 Y98.939 E23.69399
G1 X193.752 Y102.181 E23.81695
G1 X194.316 Y103.252 E23.85721
G1 X194.718 Y104.108 E23.88867
G1 X196.454 Y108.288 E24.03921
G1 X196.793 Y109.233 E24.0726
G1 X197.075 Y110.151 E24.10454
G1 X197.97 Y113.178 E24.20953
G1 X198.2 Y113.996 E24.23779
G1 X198.391 Y114.796 E24.26514
G1 X198.539 Y115.556 E24.2909
G1 X199.147 Y118.872 E24.40303
G1 X199.282 Y119.661 E24.42965
G1 X199.392 Y120.516 E24.45832
G1 X199.48 Y121.54 E24.49251
G1 X199.707 Y124.578 E24.59383
G1 X199.754 Y125.326 E24.61876
G1 X199.773 Y126.111 E24.64488
G1 X199.755 Y127.372 E24.68682
G1 X199.657 Y130.525 E24.79174
G1 X199.626 Y131.208 E24.81448
G1 X199.559 Y132.002 E24.84098
G1 X199.453 Y132.858 E24.86967
G1 X198.988 Y136.219 E24.98252
G1 X198.88 Y136.93 E25.00644
G1 X198.72 Y137.753 E25.03433
G1 X198.468 Y138.823 E25.07089
G1 X197.719 Y141.831 E25.17399
G1 X197.53 Y142.551 E25.19875
G1 X197.25 Y143.447 E25.22997
G1 X196.893 Y144.314 E25.26116
G1 X196.46 Y145.146 E25.29235
G1 X195.976 Y145.908 E25.32238
G1 X195.382 Y146.682 E25.35483
G1 X194.746 Y147.37 E25.38599
G1 X194.051 Y148.003 E25.41726
G1 X193.303 Y148.569 E25.44846
G1 X192.539 Y149.05 E25.47848
G1 X191.669 Y149.495 E25.51099
G1 X190.644 Y149.898 E25.54762
G1 X189.635 Y150.236 E25.58301
G1 X187.165 Y151.1 E25.67004
G1 X184.785 Y152.009 E25.75478
G1 X182.489 Y152.962 E25.83746
G1 X180.156 Y154.009 E25.92251
G1 X177.867 Y155.114 E26.00705
G1 X175.636 Y156.271 E26.09064
G1 X173.449 Y157.484 E26.17382
G1 X170.263 Y159.393 E26.29735
G1 X169.186 Y159.954 E26.33774
G1 X168.269 Y160.365 E26.37117
G1 X165.86 Y161.486 E26.45954
G1 X163.649 Y162.592 E26.54177
G1 X161.392 Y163.802 E26.62694
G1 X159.17 Y165.076 E26.71213
G1 X157.049 Y166.371 E26.79478
G1 X154.936 Y167.746 E26.87863
G1 X152.832 Y169.203 E26.96375
G1 X150.807 Y170.691 E27.04733
G1 X148.807 Y172.249 E27.13166
G1 X146.878 Y173.842 E27.21486
G1 X146.198 Y174.438 E27.24494
G1 X145.143 Y175.342 E27.29115
G1 X144.403 Y175.92 E27.32238
G1 X143.646 Y176.411 E27.35239
G1 X142.785 Y176.867 E27.38479
G1 X141.919 Y177.23 E27.41603
G1 X141.025 Y177.514 E27.44722
G1 X140.109 Y177.718 E27.47844
G1 X139.185 Y177.841 E27.50944
G1 X138.581 Y177.877 E27.52956
G1 X137.942 Y177.892 E27.55082
G1 X127.256 Y177.892 E27.90624
G1 X124.661 Y177.929 E27.99256
G1 X122.096 Y178.038 E28.07795
G1 X119.603 Y178.215 E28.16108
G1 X117.082 Y178.464 E28.24533
G1 X114.574 Y178.785 E28.32943
G1 X112.08 Y179.177 E28.4134
G1 X109.615 Y179.635 E28.49679
G1 X107.112 Y180.174 E28.58195
G1 X104.666 Y180.773 E28.66571
G1 X102.233 Y181.442 E28.74963
G1 X99.825 Y182.18 E28.8334
G1 X97.418 Y182.992 E28.91789
G1 X95.026 Y183.874 E29.00268
G1 X92.73 Y184.796 E29.08497
G1 X90.359 Y185.828 E29.17098
G1 X88.063 Y186.904 E29.25532
G1 X85.841 Y188.023 E29.33806
G1 X83.593 Y189.238 E29.42305
G1 X81.425 Y190.488 E29.50629
G1 X79.251 Y191.825 E29.59118
G1 X77.15 Y193.201 E29.67471
G1 X75.062 Y194.655 E29.75933
G1 X73.051 Y196.142 E29.84252
G1 X72.102 Y196.885 E29.88261
G1 X71.006 Y197.723 E29.92849
G1 X70.354 Y198.198 E29.95532
G1 X69.576 Y198.708 E29.98627
G1 X69.138 Y198.955 E30.00299
G1 X68.487 Y199.297 E30.02745
G1 X68.004 Y199.535 E30.04536
G1 X67.153 Y199.909 E30.07627
G1 X66.702 Y200.072 E30.09222
G1 X65.954 Y200.317 E30.1184
G1 X65.372 Y200.488 E30.13858
G1 X64.467 Y200.711 E30.16958
G1 X63.832 Y200.819 E30.191
G1 X62.921 Y200.944 E30.22159
G1 X61.992 Y201.029 E30.25262
G1 X61.348 Y201.04 E30.27404
G1 X60.595 Y201.026 E30.29909
G1 X60.095 Y201.004 E30.31573
G1 X58.764 Y200.861 E30.36026
